X:943
T:Jock o' Hazeldene
C:Joe Buchanan's Scottish Tome - Page 549.3
I:549 3
Z:Carl Allison
R:Waltz
L:1/4
M:3/4
K:A
a | "A"e2 c | "E"B2 A | "A"A c2 | "A"E2 F | "F#m"A2 A | "D"d2 c | "A"c3 | "E"B2 a | 
"A"e2 c | "E"B2 A | "A"A c2 | "E"E2 F | "F#m"A2 c | "E"B2 A | "A"A3- | "A"A2 c |
"D"d2 c | "D"d2 e | "D"f2 e | "F#m"a2 f | "A"e2 c | B c e | "F#m"f3- | "E"f2 a |
"A"e2 c | "E"B2 A | "A"A c2 | "E"E2 F | "F#m"A2 c | "E"B2 A | "A"A3- | A2 :|

